Obsidian-SemiLight/actions/16s/window-next.svg

<svg viewBox="0 0 16 16" xmlns="http://www.w3.org/2000/svg"><path d="m2 2v3 9h1 11v-1-11h-11zm1 3h10v8h-10zm3.8007812 1-.8007812.75 1.0742188 1.0078125 1.3261718 1.2421875-1.3261718 1.242188-1.0742188 1.007812.8007812.75 1.0742188-1.007812 2.125-1.992188-2.125-1.9921875z" fill="#4d4d4d"/></svg>

<svg xmlns="http://www.w3.org/2000/svg" viewBox="0 0 16 16">
  <defs id="defs3051">
    <style type="text/css" id="current-color-scheme">
      .ColorScheme-Text {
        color:#4d4d4d;
      }
      </style>
  </defs>
 <path style="fill:currentColor;fill-opacity:1;stroke:none" 
       d="M 2 2 L 2 5 L 2 14 L 3 14 L 14 14 L 14 13 L 14 2 L 3 2 L 2 2 z M 3 5 L 13 5 L 13 13 L 3 13 L 3 5 z M 6.8007812 6 L 6 6.75 L 7.0742188 7.7578125 L 8.4003906 9 L 7.0742188 10.242188 L 6 11.25 L 6.8007812 12 L 7.875 10.992188 L 10 9 L 7.875 7.0078125 L 6.8007812 6 z "
     class="ColorScheme-Text"
     />
</svg>
